packages/assets/static/images/icons/bold/star--bold.svg

<svg width="24" height="24" viewBox="0 0 24 24" xmlns="http://www.w3.org/2000/svg">
<path d="M22.7803 9.37321C22.664 9.01444 22.4439 8.69822 22.1479 8.46459C21.8518 8.23095 21.4931 8.09039 21.1172 8.06071L15.8118 7.63228L13.7643 2.68134C13.6204 2.33143 13.3758 2.03217 13.0615 1.82157C12.7472 1.61097 12.3774 1.49854 11.999 1.49854C11.6207 1.49854 11.2509 1.61097 10.9366 1.82157C10.6222 2.03217 10.3776 2.33143 10.2337 2.68134L8.18809 7.63321L2.88278 8.06071C2.50611 8.09178 2.14703 8.23348 1.85066 8.46801C1.55428 8.70254 1.33384 9.01944 1.21703 9.37888C1.10022 9.73833 1.09226 10.1243 1.19414 10.4882C1.29602 10.8522 1.50321 11.1779 1.78965 11.4245L5.83778 14.9157L4.60028 20.1376C4.51002 20.5058 4.53137 20.8925 4.66162 21.2484C4.79186 21.6044 5.0251 21.9136 5.33164 22.1366C5.63818 22.3596 6.00415 22.4863 6.38294 22.5006C6.76174 22.5149 7.13622 22.4162 7.45872 22.217L11.999 19.4223L16.5393 22.217C16.8617 22.4149 17.2356 22.5126 17.6136 22.4979C17.9916 22.4832 18.3568 22.3567 18.6628 22.1344C18.9689 21.912 19.2021 21.6039 19.3329 21.2489C19.4637 20.894 19.4863 20.5082 19.3978 20.1404L18.1603 14.9185L22.2084 11.4273C22.4966 11.1801 22.7048 10.8529 22.8066 10.4872C22.9084 10.1215 22.8993 9.73372 22.7803 9.37321ZM16.1737 13.6576C16.0176 13.7922 15.9015 13.967 15.838 14.1631C15.7745 14.3592 15.7661 14.5689 15.8137 14.7695L17.0222 19.8732L12.5887 17.147C12.4114 17.0378 12.2073 16.98 11.999 16.98C11.7908 16.98 11.5867 17.0378 11.4093 17.147L6.9759 19.8732L8.18434 14.7732C8.23194 14.5727 8.22354 14.3629 8.16005 14.1669C8.09657 13.9708 7.98044 13.7959 7.82434 13.6613L3.86153 10.2395L9.05528 9.8204C9.26196 9.8038 9.46004 9.73039 9.62763 9.6083C9.79522 9.4862 9.9258 9.32017 10.005 9.12853L11.999 4.3004L13.9931 9.12853C14.0723 9.32017 14.2028 9.4862 14.3704 9.6083C14.538 9.73039 14.7361 9.8038 14.9428 9.8204L20.1365 10.2395L16.1737 13.6576Z"/>
</svg>

<svg viewBox="0 0 24 24" xmlns="http://www.w3.org/2000/svg" aria-hidden="true" fill="currentColor"><path d="M22.78 9.373a1.91 1.91 0 0 0-1.663-1.312l-5.305-.429-2.048-4.95a1.909 1.909 0 0 0-3.53 0L8.188 7.632l-5.305.428a1.917 1.917 0 0 0-1.093 3.364l4.048 3.49L4.6 20.139a1.91 1.91 0 0 0 2.859 2.079l4.54-2.795 4.54 2.795a1.912 1.912 0 0 0 2.859-2.077l-1.238-5.222 4.048-3.49a1.915 1.915 0 0 0 .572-2.055m-6.606 4.285a1.13 1.13 0 0 0-.36 1.112l1.208 5.103-4.433-2.726a1.12 1.12 0 0 0-1.18 0l-4.433 2.726 1.208-5.1a1.13 1.13 0 0 0-.36-1.112L3.862 10.24l5.193-.42a1.13 1.13 0 0 0 .95-.691L11.999 4.3l1.994 4.829a1.13 1.13 0 0 0 .95.691l5.194.42z"/></svg>
